SVG_Azure_All/Resource Graph query.svg

<?xml version="1.0" encoding="UTF-8" standalone="no"?>
<!-- Generated by Microsoft Visio, SVG Export Resource Graph query.svg Page-1 -->

<svg
   xmlns:dc="http://purl.org/dc/elements/1.1/"
   xmlns:cc="http://creativecommons.org/ns#"
   xmlns:rdf="http://www.w3.org/1999/02/22-rdf-syntax-ns#"
   xmlns:svg="http://www.w3.org/2000/svg"
   xmlns="http://www.w3.org/2000/svg"
   xmlns:sodipodi="http://sodipodi.sourceforge.net/DTD/sodipodi-0.dtd"
   xmlns:inkscape="http://www.inkscape.org/namespaces/inkscape"
   width="0.78739744in"
   height="0.7873562in"
   viewBox="0 0 56.692524 56.689957"
   xml:space="preserve"
   class="st5"
   version="1.1"
   id="svg49"
   sodipodi:docname="Resource Graph query.svg"
   style="font-size:12px;overflow:visible;color-interpolation-filters:sRGB;fill:none;fill-rule:evenodd;stroke-linecap:square;stroke-miterlimit:3"
   inkscape:version="0.92.5 (2060ec1f9f, 2020-04-08)"><metadata
   id="metadata55"><rdf:RDF><cc:Work
       rdf:about=""><dc:format>image/svg+xml</dc:format><dc:type
         rdf:resource="http://purl.org/dc/dcmitype/StillImage" /></cc:Work></rdf:RDF></metadata><defs
   id="defs53" /><sodipodi:namedview
   pagecolor="#ffffff"
   bordercolor="#666666"
   borderopacity="1"
   objecttolerance="10"
   gridtolerance="10"
   guidetolerance="10"
   inkscape:pageopacity="0"
   inkscape:pageshadow="2"
   inkscape:window-width="640"
   inkscape:window-height="480"
   id="namedview51"
   showgrid="false"
   inkscape:zoom="1.4193119"
   inkscape:cx="37.795138"
   inkscape:cy="37.78453"
   inkscape:window-x="0"
   inkscape:window-y="0"
   inkscape:window-maximized="0"
   inkscape:current-layer="svg49" />
	<style
   type="text/css"
   id="style2">
	<![CDATA[
		.st1 {fill:#552f99;stroke:none;stroke-linecap:butt;stroke-width:34}
		.st2 {fill:#ffffff;stroke:none;stroke-linecap:butt;stroke-width:34}
		.st3 {fill:#b796f9;stroke:none;stroke-linecap:butt;stroke-width:34}
		.st4 {fill:#9a5fe3;stroke:none;stroke-linecap:butt;stroke-width:34}
		.st5 {fill:none;fill-rule:evenodd;font-size:12px;overflow:visible;stroke-linecap:square;stroke-miterlimit:3}
	]]>
	</style>

	<g
   id="g47"
   transform="translate(-34.000434,-34.003097)">
		<title
   id="title4">Page-1</title>
		<g
   id="group1928-1"
   transform="translate(34,-34.0157)">
			<title
   id="title6">Resource Graph query</title>
			<g
   id="group1929-2">
				<title
   id="title8">Sheet.1929</title>
				<g
   id="shape1930-3"
   transform="translate(0,-17.6012)">
					<title
   id="title10">Sheet.1930</title>
					<path
   d="m 0,122.76 a 1.92682,1.94474 -180 0 0 1.93,1.95 H 36.8 a 1.92682,1.94474 -180 0 0 1.93,-1.95 V 87.56 A 1.92682,1.94474 -180 0 0 36.8,85.62 H 1.93 A 1.92682,1.94474 -180 0 0 0,87.56 Z"
   class="st1"
   id="path12"
   inkscape:connector-curvature="0"
   style="fill:#552f99;stroke:none;stroke-width:34;stroke-linecap:butt" />
				</g>
				<g
   id="shape1931-5"
   transform="translate(2.87383,-44.6621)">
					<title
   id="title15">Sheet.1931</title>
					<path
   d="M 0.62,119.04 H 32.4 c 0.32,0 0.62,0 0.62,0.2 v 5.3 c 0,0 -0.3,0.17 -0.62,0.17 H 0.62 C 0.26,124.54 0,124.54 0,124.54 v -5.3 c 0,0 0.26,-0.2 0.62,-0.2 z"
   class="st2"
   id="path17"
   inkscape:connector-curvature="0"
   style="fill:#ffffff;stroke:none;stroke-width:34;stroke-linecap:butt" />
				</g>
				<g
   id="shape1932-7"
   transform="translate(2.87383,-24.1604)">
					<title
   id="title20">Sheet.1932</title>
					<path
   d="m 0.62,108.92 h 32.4 v 5.41 H 0 v -5.24 c 0,0 0.26,-0.17 0.62,-0.17 z m 0,10.38 h 32.4 v 5.24 c 0,0 -0.3,0.17 -0.62,0.17 H 0.62 c -0.36,0 -0.62,0 -0.62,-0.17 v -5.07 c 0,0 0.26,-0.17 0.62,-0.17 z"
   class="st3"
   id="path22"
   inkscape:connector-curvature="0"
   style="fill:#b796f9;stroke:none;stroke-width:34;stroke-linecap:butt" />
				</g>
				<g
   id="shape1933-9"
   transform="translate(28.7803,-5.27376)">
					<title
   id="title25">Sheet.1933</title>
					<path
   d="M 17.46,124.71 0.28,107.27 a 1.33895,1.3514 0 0 1 0.98,-2.3 h 21.85 v 2.73 H 4.5 l 14.89,15.23 z"
   class="st3"
   id="path27"
   inkscape:connector-curvature="0"
   style="fill:#b796f9;stroke:none;stroke-width:34;stroke-linecap:butt" />
				</g>
				<g
   id="shape1934-11"
   transform="translate(26.7789,-19.7436)">
					<title
   id="title30">Sheet.1934</title>
					<ellipse
   cx="3.7555799"
   cy="120.918"
   rx="3.7555799"
   ry="3.7905099"
   class="st4"
   id="ellipse32"
   style="fill:#9a5fe3;stroke:none;stroke-width:34;stroke-linecap:butt" />
				</g>
				<g
   id="shape1935-13"
   transform="translate(47.0917,-19.2163)">
					<title
   id="title35">Sheet.1935</title>
					<ellipse
   cx="4.8006101"
   cy="119.863"
   rx="4.8006101"
   ry="4.8452702"
   class="st4"
   id="ellipse37"
   style="fill:#9a5fe3;stroke:none;stroke-width:34;stroke-linecap:butt" />
				</g>
				<g
   id="shape1936-15"
   transform="translate(40.7562)">
					<title
   id="title40">Sheet.1936</title>
					<ellipse
   cx="6.1069002"
   cy="118.578"
   rx="6.1069002"
   ry="6.1307502"
   class="st4"
   id="ellipse42"
   style="fill:#9a5fe3;stroke:none;stroke-width:34;stroke-linecap:butt" />
				</g>
			</g>
		</g>
	</g>
</svg>

<?xml version="1.0" encoding="UTF-8" standalone="no"?>
<!DOCTYPE svg PUBLIC "-//W3C//DTD SVG 1.1//EN" "http://www.w3.org/Graphics/SVG/1.1/DTD/svg11.dtd">
<!-- Generated by Microsoft Visio, SVG Export Resource Graph query.svg Page-1 -->
<svg xmlns="http://www.w3.org/2000/svg" xmlns:xlink="http://www.w3.org/1999/xlink" xmlns:ev="http://www.w3.org/2001/xml-events"
		width="1.73185in" height="1.73206in" viewBox="0 0 124.693 124.709" xml:space="preserve" color-interpolation-filters="sRGB"
		class="st5">
	<style type="text/css">
	<![CDATA[
		.st1 {fill:#552f99;stroke:none;stroke-linecap:butt;stroke-width:34}
		.st2 {fill:#ffffff;stroke:none;stroke-linecap:butt;stroke-width:34}
		.st3 {fill:#b796f9;stroke:none;stroke-linecap:butt;stroke-width:34}
		.st4 {fill:#9a5fe3;stroke:none;stroke-linecap:butt;stroke-width:34}
		.st5 {fill:none;fill-rule:evenodd;font-size:12px;overflow:visible;stroke-linecap:square;stroke-miterlimit:3}
	]]>
	</style>

	<g>
		<title>Page-1</title>
		<g id="group1913-1" transform="translate(34,-34.0157)">
			<title>Resource Graph query</title>
			<g id="group1914-2">
				<title>Sheet.1914</title>
				<g id="shape1915-3" transform="translate(0,-17.6012)">
					<title>Sheet.1915</title>
					<path d="M0 122.76 A1.92682 1.94474 -180 0 0 1.93 124.71 L36.8 124.71 A1.92682 1.94474 -180 0 0 38.73 122.76
								 L38.73 87.56 A1.92682 1.94474 -180 0 0 36.8 85.62 L1.93 85.62 A1.92682 1.94474 -180 0 0 0 87.56
								 L0 122.76 Z" class="st1"/>
				</g>
				<g id="shape1916-5" transform="translate(2.87383,-44.6621)">
					<title>Sheet.1916</title>
					<path d="M0.62 119.04 L32.4 119.04 C32.72 119.04 33.02 119.04 33.02 119.24 L33.02 124.54 C33.02 124.54 32.72
								 124.71 32.4 124.71 L0.62 124.71 C0.26 124.54 0 124.54 0 124.54 L0 119.24 C0 119.24 0.26 119.04 0.62
								 119.04 Z" class="st2"/>
				</g>
				<g id="shape1917-7" transform="translate(2.87383,-24.1604)">
					<title>Sheet.1917</title>
					<path d="M0.62 108.92 L33.02 108.92 L33.02 114.33 L0 114.33 L0 109.09 C0 109.09 0.26 108.92 0.62 108.92 ZM0.62
								 119.3 L33.02 119.3 L33.02 124.54 C33.02 124.54 32.72 124.71 32.4 124.71 L0.62 124.71 C0.26 124.71
								 0 124.71 0 124.54 L0 119.47 C0 119.47 0.26 119.3 0.62 119.3 Z" class="st3"/>
				</g>
				<g id="shape1918-9" transform="translate(28.7803,-5.27376)">
					<title>Sheet.1918</title>
					<path d="M17.46 124.71 L0.28 107.27 A1.33895 1.3514 0 0 1 1.26 104.97 L23.11 104.97 L23.11 107.7 L4.5 107.7 L19.39
								 122.93 L17.46 124.71 Z" class="st3"/>
				</g>
				<g id="shape1919-11" transform="translate(26.7789,-19.7436)">
					<title>Sheet.1919</title>
					<ellipse cx="3.75558" cy="120.918" rx="3.75558" ry="3.79051" class="st4"/>
				</g>
				<g id="shape1920-13" transform="translate(47.0917,-19.2163)">
					<title>Sheet.1920</title>
					<ellipse cx="4.80061" cy="119.863" rx="4.80061" ry="4.84527" class="st4"/>
				</g>
				<g id="shape1921-15" transform="translate(40.7562,1.42109E-14)">
					<title>Sheet.1921</title>
					<ellipse cx="6.1069" cy="118.578" rx="6.1069" ry="6.13075" class="st4"/>
				</g>
			</g>
		</g>
	</g>
</svg>
